icons/linear-new-textedit-office-number-list.svg

<svg xmlns="http://www.w3.org/2000/svg" width="32px" height="32px" viewBox="0 0 32 32" version="1.1">
    <title>linear-new-textedit-office-number-list</title>
    <g id="linear-new-textedit-office-number-list" stroke-width="1" fill-rule="evenodd">
        <path d="M28,5 C28.5522847,5 29,5.44771525 29,6 C29,6.55228475 28.5522847,7 28,7 L14,7 C13.4477153,7 13,6.55228475 13,6 C13,5.44771525 13.4477153,5 14,5 L28,5 Z M28,15 C28.5522847,15 29,15.4477153 29,16 C29,16.5522847 28.5522847,17 28,17 L14,17 C13.4477153,17 13,16.5522847 13,16 C13,15.4477153 13.4477153,15 14,15 L28,15 Z M28,25 C28.5522847,25 29,25.4477153 29,26 C29,26.5522847 28.5522847,27 28,27 L14,27 C13.4477153,27 13,26.5522847 13,26 C13,25.4477153 13.4477153,25 14,25 L28,25 Z M6.5527864,3.10557281 C7.2176875,2.77312226 8,3.25661798 8,4 L8,12 C8,12.5522847 7.55228475,13 7,13 C6.44771525,13 6,12.5522847 6,12 L6,5.618 L4.4472136,6.39442719 C3.98851928,6.62377435 3.43782813,6.46751387 3.16374483,6.04851397 L3.10557281,5.9472136 C2.85858356,5.4532351 3.05880791,4.85256206 3.5527864,4.60557281 L6.5527864,3.10557281 Z M6.25,18 C8.64040267,18 10.1778396,20.1287588 9.4486833,22.3162278 C9.15498179,23.1973323 8.26899619,24.3402663 6.76375788,25.816514 L6.574,26 L9,26 C9.51283584,26 9.93550716,26.3860402 9.99327227,26.8833789 L10,27 C10,27.5522847 9.55228475,28 9,28 L4,28 C3.07663508,28 2.64659247,26.8554634 3.34149539,26.2474233 L3.86602584,25.7833465 C6.06590073,23.8143542 7.31408105,22.3954792 7.5513167,21.6837722 C7.84847618,20.7922938 7.276264,20 6.25,20 C5.50484389,20 5.06175696,20.5007035 5.00599051,20.9131777 L5,21 C5,21.5522847 4.55228475,22 4,22 C3.44771525,22 3,21.5522847 3,21 C3,19.5615765 4.22695297,18 6.25,18 Z" id="&#24418;&#29366;" fill-rule="nonzero" />
    </g>
</svg>

<svg xmlns="http://www.w3.org/2000/svg" viewBox="0 0 32 32"><path fill="currentColor" d="M28 5a1 1 0 0 1 0 2H14a1 1 0 0 1 0-2zm0 10a1 1 0 0 1 0 2H14a1 1 0 0 1 0-2zm0 10a1 1 0 0 1 0 2H14a1 1 0 0 1 0-2zM6.553 3.106A1 1 0 0 1 8 4v8a1 1 0 0 1-2 0V5.618l-1.553.776a1 1 0 0 1-1.283-.345l-.058-.102a1 1 0 0 1 .447-1.341zM6.25 18c2.39 0 3.928 2.129 3.199 4.316-.294.881-1.18 2.024-2.685 3.5l-.19.184H9a1 1 0 0 1 .993.883L10 27a1 1 0 0 1-1 1H4c-.923 0-1.353-1.145-.659-1.753l.525-.464c2.2-1.969 3.448-3.388 3.685-4.1C7.848 20.794 7.276 20 6.25 20c-.745 0-1.188.5-1.244.913L5 21a1 1 0 0 1-2 0c0-1.438 1.227-3 3.25-3"/></svg>
